src/images/app_2/statement/ic_price_up.svg

<?xml version="1.0" encoding="UTF-8"?>
<svg width="16px" height="16px" viewBox="0 0 16 16" version="1.1" xmlns="http://www.w3.org/2000/svg" xmlns:xlink="http://www.w3.org/1999/xlink">
    <!-- Generator: Sketch 50.2 (55047) - http://www.bohemiancoding.com/sketch -->
    <title>icons/system/light/indicative/ic_price_up</title>
    <desc>Created with Sketch.</desc>
    <defs></defs>
    <g id="icons/system/light/indicative/ic_price_up" stroke="none" stroke-width="1" fill="none" fill-rule="evenodd">
        <path d="M13.2928932,5 L10.5,5 C10.2238576,5 10,4.77614237 10,4.5 C10,4.22385763 10.2238576,4 10.5,4 L14.5,4 C14.7761424,4 15,4.22385763 15,4.5 L15,8.5 C15,8.77614237 14.7761424,9 14.5,9 C14.2238576,9 14,8.77614237 14,8.5 L14,5.70710678 L8.85355339,10.8535534 C8.65829124,11.0488155 8.34170876,11.0488155 8.14644661,10.8535534 L5.5,8.20710678 L1.85355339,11.8535534 C1.65829124,12.0488155 1.34170876,12.0488155 1.14644661,11.8535534 C0.951184464,11.6582912 0.951184464,11.3417088 1.14644661,11.1464466 L5.14644661,7.14644661 C5.34170876,6.95118446 5.65829124,6.95118446 5.85355339,7.14644661 L8.5,9.79289322 L13.2928932,5 Z" id="Combined-Shape" fill="#4CAF50" fill-rule="nonzero"></path>
    </g>
</svg>

<svg width="16" height="16" xmlns="http://www.w3.org/2000/svg"><path d="M13.293 5H10.5a.5.5 0 1 1 0-1h4a.5.5 0 0 1 .5.5v4a.5.5 0 1 1-1 0V5.707l-5.146 5.147a.5.5 0 0 1-.708 0L5.5 8.207l-3.646 3.647a.5.5 0 0 1-.708-.708l4-4a.5.5 0 0 1 .708 0L8.5 9.793 13.293 5z" fill="#4CAF50" fill-rule="nonzero"/></svg>
